X: 30051
T: NOBLE LADS OF CANADA
C:
%R: march
B: Elias Howe "The Musician's Companion" Part 3 1844 p.5 #1
S: http://imslp.org/wiki/The_Musician's_Companion_(Howe,_Elias)
S: https://archive.org/stream/firstthirdpartof03howe/#page/66/mode/1up
Z: 2016 John Chambers <jc:trillian.mit.edu>
M: 2/4
L: 1/8
K: G
% - - - - - - - - - - - - - - - - - - - - - - - - -
D |\
GGGG | G2GG | AGFE | D3D |\
GGGG | G2GG | ABcB | A3 :|\
|: B |\
BABc | dddd |
edcB | c2cd |\
edcB | cB AG | dGFE | D2DD |\
EFGE | AFD2 | d3c | B3A | G3 :|
% - - - - - - - - - - - - - - - - - - - - - - - - -


